X: 28554
T: Murdo Of The Moon
R: waltz
M: 3/4
K: Gmajor
DGA|:Bd cB AG|[M:4/4] AG A2 BAGE|[M:3/4] A2 GABd|A3 D GA|
Bd cB AG|[M:4/4] AG A2 BAGE|[M:3/4] A2 GABd|[M:4/4] A4 GFED||[M:3/4]
G2 Gc BA|B2 GF ED|G2 Gc BA|A2 GF ED|
G2 Gc BA|B2 GF ED|G2 Gc BA|A4 Bc||
|:d2 G2 cB|A4 fg|a2 d2 fg|g4 gf|
ec d2 GA|Bd cB AG|1 A4 Bc:|2 A3 D GA||

